X: 191295
T: Sweeney's
S: "Johnny O'Leary of Sliabh Luachra" (#282)
Z: B.Black
L: 1/8
M: 2/4
Q: 270
R: polka
K: A
ef/e/ ce|Ae ce|f/g/a/f/ ec|BA FA|
ef/e/ ce|Ae ce|a>f ec|BA A2 :|
ce f/g/a/f/|ec BA|ce a>f|ec Bc/B/|
ce f/g/a/f/|ec BA|ef/e/ cB|cA A2 :|
